X:1
T:In hoc ego
T:In hoc ego
T:Pierre Moulu
T:Source : Il primo libro di madrigali a 3 voci---Venetia---A.Gardano---1559. Editor : André Vierendeels (25/10/14).
T:Notes: Original clefs : C1, C3, F3 Original note values have been halved Editorial accidentals above the staff Square brackets indicate ligatures
C:Pierre Moulu
%%score [ 1 [ 2 3 ] ]
L:1/8
Q:1/4=88
M:2/2
K:F
V:1 treble nm="Canto" snm="C"
V:2 treble-8 nm="Tenor 1" snm="T 1"
V:3 treble-8 nm="Tenor 2" snm="T 2"
V:1
 z8 | z8 | z8 | c4 c4- | c2 c2 B4 | c4 d3 c | BA GF GA Bc | d3 c/B/ AG c2- | c2 B2 c4- | c4 z4 | %10
w: |||In hoc|_ e- go|spe- ra- *|||* * bo|_|
 z8 | z8 | z8 | z8 | z4 G4 | c6 c2 | B3 A Bc d2- | dc BA B4 | AG AB c2 d2- | dc c4 B2 | A2 G4 FE | %21
w: ||||u-|nam pe-|ti- * * * *|* * * * i|a _ _ _ _ do-|* * * mi-|no, a _ _|
 DC DE F2 G2- | GF F4 E2 | F4 z4 | z8 | c4 c4- | c2 c2 B4 | c4 d3 c | BA G4 c2- | cB AG FE DC | %30
w: _ _ _ _ _ do-|* * * mi-|no,||a do-|* mi- no|hanc re- *|* * * qui-||
 DC F4 E2 | F8 | z8 | z8 | z8 | z8 | z8 | z8 | z4 z2 C2 | FE FG AB cA | B3 A/G/ FG AB | %41
w: |ram,|||||||vi-|tae _ _ _ _ _ _ _|_ _ _ _ _ _ _|
 c2 B3 A A2- | AG/F/ G2 A4 | z2 A2 A4 | z2 A2 A2 A2 | G2 c4 BA | B2 d3 c BA | G2 c4 B2 | c4 z4 | %49
w: * me- * *|* * * * ae|in hoc,|in hoc e-|go spe- * *|* ra- * * *||bo,|
 z2 c2 A2 B2 | c4 F2 G2 | A2 F2 B2 AG | FG AF G2 A2- | A2 GF E4 | z2 C2 C2 C2 | F2 E2 D2 G2- | %56
w: in hoc e-|go spe- ra-|bo, spe- ra- * *||* * * bo,|in hoc e-|go spe- ra- *|
 GF ED E3 F | G2 A3 G FE | DC F4 E2 | F4 z2 F2 | F2 G2 AB cA | B4 AG AB | c2 FE FG A2 | %63
w: |||bo, in|hoc e- go _ _ _|spe- ra- * * *|bo, in _ _ _ _|
 DC DE F2 CB, | CD EF GA Bc | BA GF ED CB, | A,2 A2 G2 A2- | AG F4 E2 | F8 |] %69
w: hoc _ _ _ _ e- *|||go spe- ra- *||bo.|
V:2
 f4 f4- | f2 f2 e4 | f4 g3 f | e2 f3 g a2- | ag fe d4 | c4 z2 g2- | gf ed e2 dc | Bc de f3 e | %8
w: In hoc|_ e- go|spe- ra- *|||bo, spe-|* * * * ra- * *||
 d4 c4 | z2 c2 c4 | c4 B4 | c4 d3 c | BA GF GA Bc | d3 c/B/ AG c2- |"^-natural" c2 B2 c4 | z8 | %16
w: * bo,|in hoc|e- go|spe- ra- *|||* * bo,||
 z4 d4 | g6 g2 | f2 d2 e2 f2- | fe dc d2 d2 | c4 z4 | z8 | z4 z2 B2 | AG AB c2 d2- | %24
w: u-|nam pe-|ti- i a do-|* * * * * mi-|no,||a|do- * * * * *|
"^-natural" dc c4 B2 | c4 z2 f2 | e2 f2 d2 e2- | e2 c2 f3 e | dc B2 c3 B | AG A4 B2- | BA GF G4 | %31
w: * * * mi-|no hanc|re- qui- ram, hanc|_ re- qui- *||||
 F4 z2 c2 | c2 c2 de fd | e2 d4 g2- | gf ed cB c2- | cB AG A2 d2- | dc BA G2 c2- | %37
w: ram, ut|in ha bi- * * *|tem in do-||* * * * * mo|_ _ _ _ _ do-|
"^-natural" c2 B2 c4- | c8 | z8 | z8 | z4 z2 c2 | dc de f2 ed | c4 z2 f2 | f6 f2 | e4 f4 | %46
w: * mi- ni,|_|||vi-|tae _ _ _ me- * *|ae, in|hoc e-|go spe-|
 g2 fe d2 e2- | ed ef d4 | c4 z2 f2- | f2 e2 f2 d2 | c2 f2 d2 e2 | f3 e dc d2- | dc A2 B2 c2- | %53
w: ra- * * * *||bo, in|_ hoc e- go,|in hoc e- go|_ _ _ _ _|* * * spe- ra-|
 c2 B2 c4- | c4 z4 | z8 | z8 | z8 | z8 | z4 d4 | d2 d2 c2 f2- | f2 e2 f3 e | c2 d3 c A2 | %63
w: * * bo,|_|||||in|hoc e- go spe-|* * ra- *|* bo, _ _|
 B3 A F3 G | AB cA Bc d2- | dc BA G2 c2- | c2 BA B2 c2 | F4 G4 | F8 |] %69
w: in _ _ _|_ _ _ _ _ _ _|* * * * hoc e-|* * * go spe-|ra- *|bo.|
V:3
 z8 | z8 | z8 | z8 | z8 | z8 | G4 G4- | G2 G2 F4 | G4 A3 G | E2 F3 G A2- | AG FE DC D2 | %11
w: ||||||In hoc|_ e- go|spe- ra- *|||
 C4 z2 G2- | GF ED EF G2- | GF DE FE DC | D4 C2 c2- | cB AG A4 | G8 | z8 | z8 | z4 G4 | c6 c2 | %21
w: bo, spe-|* * * * * * ra-||* bo, spe-|* * * * ra-|bo,|||u-|nam pe-|
 B2 G2 A2 B2- | BA GF G2 G2 | F2 D2 E2 F2- | FE DC D2 D2 | C2 FE FG AB | c2 F2 G4 | A3 G FE D2 | %28
w: ti- i a- do-|* * * * * mi-|no, a do- *|* * * * * mi-|no hanc _ _ _ _ _|_ re- qui-|ram, _ _ _ _|
 G3 F ED C2 | F3 E DC B,2- | B,C D2 C4 | F8 | z2 F2 F2 F2 | GF GA B2 G2 | c3 B AG FE | F3 E DC D2 | %36
w: hanc _ _ _ _|re- * * * qui-||ram,|ut in ha-|bi- * * * tem in|do- * * * * *|* * * * mo|
 G3 F E2 F2 | D4 z2 C2 | FE FG AB cA | B2 AG FG AF | G3 F/E/ DE FG | A2 G2 AB cA | B2 AG F4 | %43
w: do- * * mi-|ni, o-|mni- * * * * * * *|bus _ _ _ _ _ _|di- * * e- * * *|bus vi- tae _ _ _|me- * * ae,|
"^-natural" z2 F2 F4 | z2 F2 F2 F2 | c3 B A4 | G8- | G8 | z2 c2 A2 B2 | c4 F2 G2 | A2 F2 B2 AG | %51
w: in hoc,|in hoc e-|go spe- ra-|bo,|_|in hoc e-|go spe- ra-|* bo, e- * *|
 FG AF G2 FE | D2 F2 _E2 C2 | D4 z2 C2 | C2 C2 F2 E2 | D2 G3 F ED | C2 c3 B cA | B2 A2 d3 c | %58
w: * * * * go _ _|_ spe- ra- *|bo, in|hoc e- go spe-|ra- * * * *|bo, spe- * * *|* * ra- *|
 BA GF G4 | F4 z2 B2 | B2 B2 A2 F2 | G4 F4- | F4 z4 | z8 | z8 | z4 z2 F2 | F2 F2 _E2 C2 | D4 C4 | %68
w: |bo, in|hoc e- go spe-|ra- bo,|_|||in|hoc spe- ra- *||
 F8 |] %69
w: bo.|

